X:16
T:Lord St Vincent's Hornpipe. CAM2.[16]
B:Anon MS#2, early 19thC, Northumbria, Cocks Coll.
Z:Village Music Project 2016 Steve Mansfield
M:C|
L:1/8
Q:2/4=75
K:C
gf | e2c2c2 ec | dcBA G2 GF | EGcG AfdB | dcBA G2 gf |
e2c2c2 ag | f2d2d2 dc | Bdfb aba^f | g2g2g2 :|
|: gf | ecBc ecBc | AFEF AFEF | defe fedc | BcdB G2 ef |
gcBc acBc | bcBc c'cBc | cdef ecdB | c2c2c2 :|

